!!!!SEGMENT: pl-cz--iii-50--013_brykner-jerzy-vesperae-memento-domine-david.krn
!!!id: 17xx:855
!!!COM: Brykner, Jerzy
!!!OTL: Vesperae – Memento Domine David
!!!PDT:
!!!SMS-siglum: PL-CZ
!!!SMS-shelfmark: III-50
!!!NIFC-rismID: 300033583
!!!URL-scan: http://repozytorium.nifc.pl/skany/pl-cz-nut--iii-50
!!!ONB-nifc: UWAGA: części Vesperae: Dixit Dominus, Confitebor, Beatus vir, Laudate pueri,
!!!SMS-variant:
!!!SMS-altvar:
**kern	**fba	**kern	**kern	**kern	**text	**kern	**text	**kern	**kern
*part7	*part7	*part6	*part5	*part4	*part4	*part3	*part3	*part2	*part1
*staff7	*staff7	*staff6	*staff5	*staff4	*staff4	*staff3	*staff3	*staff2	*staff1
*I"Organo.	*	*I"Violini Secundo.	*I"Violini Primo.	*I"Baſso.	*	*I"Canto.	*	*I"Clarino2do	*I"Clarino 1mo
*I'Org.	*	*I'Vn II	*I'Vn I	*I'B.	*	*I'C.	*	*	*
*clefF4	*	*clefG2	*clefG2	*clefF4	*	*clefC1	*	*	*
*k[b-e-]	*	*k[b-e-]	*k[b-e-]	*k[b-e-]	*	*k[b-e-]	*	*	*
*B-:	*	*B-:	*B-:	*B-:	*	*B-:	*	*	*
*M4/4	*	*M4/4	*M4/4	*M4/4	*	*M4/4	*	*	*
*met(c)	*	*met(c)	*met(c)	*met(c)	*	*met(c)	*	*	*
=1	=1	=1	=1	=1	=1	=1	=1	=1	=1
!LO:SIC:o:s:=:v:metrum C z haczykiem u góry	!	!LO:SIC:o:s:=:v: partia vl 2 pisana inną ręką	!	!LO:TX:b:t=Memento D(omi)ne.	!	!	!	!	!
!LO:TX:rj:a:t=Solo.	!	!LO:SIC:o:s:=:v:metrum C z haczykiem u góry	!LO:SIC:o:s:=:v:metrum C z haczykiem u góry	!LO:SIC:o:s:=:v:metrum C z haczykiem u góry	!	!	!	!	!
!LO:TX:rj:b:t=Memento.	!	!LO:TX:b:t=Memento.	!LO:TX:rj:b:t=Memento.	!LO:TX:a:t=1.	!	!LO:SIC:o:s:=:v:metrum C z haczykiem u góry	!	!	!
4G\	.	8b-/L	8dd\L	1r	.	16r	.	1ryy	1ryy
.	.	.	.	.	.	16dd\	Me-	.	.
.	.	16g/L	16b-\L	.	.	16b-\	-men-	.	.
.	.	16a/JJ	16cc\JJ	.	.	16cc\	-to	.	.
!LO:TX:t=P:problem:mixed beam	!	!	!	!	!	!	!	!	!
8GG/L	.	8b-/L	8dd\L	.	.	8dd\	Do-	.	.
8G\J	6 4	8cc/J	8ee-\J	.	.	16ee-\	-mi-	.	.
.	.	.	.	.	.	16ee-\	-ne	.	.
8G\L	6 4	8cc/L	8ee-\L	.	.	8ee-\	Da-	.	.
8G\	5 3	8b-/J	8dd\J	.	.	8dd\	-vid,	.	.
8B-\	.	16dd/LL	16gg\LL	.	.	16r	.	.	.
.	.	16b-/	16dd\	.	.	16dd\	et	.	.
8G\J	.	16cc/	16ee-\	.	.	16ee-\	om-	.	.
.	.	16b-/JJ	16dd\JJ	.	.	16dd\	-nis	.	.
=2	=2	=2	=2	=2	=2	=2	=2	=2	=2
8A\L	.	8a/L	8cc\L	4r	.	8cc\	ma(n)-	1ryy	1ryy
8F#X\	.	8d/	16b-\L	.	.	16b-\LL	-sue-	.	.
.	.	.	16a\JJ	.	.	16a\JJ	.	.	.
!LO:TX:t=P:problem:mixed beam	!	!	!	!	!	!	!	!	!
8G\	.	8d/	8b-/L	8G\	Si-	8b-\	-tu-	.	.
8C/J	.	8e-/J	16a/L	16G\	-cut	16a\	-di-	.	.
.	.	.	16g/JJ	16G\	Ju-	16g\	-nis	.	.
*2\right	*	*	*	*	*	*	*	*	*
2D\	6 4	8d/L	4b-/	8G\	-ra-	(4b-\	e-	.	.
.	.	16g/L	.	16F#X\LL	-vit	.	.	.	.
.	.	16a/JJ	.	16E-\JJ	.	.	.	.	.
.	5 #	4a/	4a/	8.F#X\	Do-	4a\)	.	.	.
.	.	.	.	16F#\	-mi-	.	.	.	.
=3	=3	=3	=3	=3	=3	=3	=3	=3	=3
!	!	!	!LO:TX:t=P:problem:mixed beam	!	!	!	!	!	!
4G\	.	16g/LL	8g/L	8G\	-no,	4g\	-jus,	1ryy	1ryy
.	.	16d/	.	.	.	.	.	.	.
.	.	16g/	8dd\	16B-\	vo-	.	.	.	.
.	.	16b-/JJ	.	16G\	-tum	.	.	.	.
4Fn\	6	8a/L	8dd\	16A\	vo-	4r	.	.	.
.	.	.	.	16A\	-vit	.	.	.	.
.	.	16g/L	8dd\J	16D\	De-	.	.	.	.
.	.	16f/JJ	.	16En\	-o	.	.	.	.
4En\	7	4g/	8dd\L	4E\	Ja-	4r	.	.	.
.	6\	.	8cc#X\J	.	.	.	.	.	.
4D\	.	16f/LL	4dd\	4D\	-cob.	16r	.	.	.
.	.	16a/	.	.	.	16a\	Si	.	.
.	.	16dd/	.	.	.	16dd\	in-	.	.
!	!	!	!	!	!	!LO:SIC:o:s:=:v:podwójny przecinek jako łamanie sylab między systemami&colon;global	!	!	!
.	.	16a/JJ	.	.	.	16a,,<\	-tro-	.	.
!	!	!	!LO:LB:g=original	!	!	!LO:LB:g=original	!	!	!
=4	=4	=4	=4	=4	=4	=4	=4	=4	=4
!	!	!	!	!LO:TX:a:t=1.	!	!	!	!	!
4G\	.	8b-/	16r	1r	.	16b-\	-i-	1ryy	1ryy
.	.	.	16dd\LL	.	.	16b-\	-e-	.	.
.	.	4b-/	16gg\	.	.	16b-\	-ro	.	.
.	.	.	16dd\JJ	.	.	16b-\	in	.	.
8C/L	7 n	.	8een\L	.	.	8b-\	ta-	.	.
8D/J	.	8a/	16ff\L	.	.	8a\	-ber-	.	.
.	.	.	16ee\JJ	.	.	.	.	.	.
4BB-/	.	8b-/L	8dd\L	.	.	8dd\	-na-	.	.
.	.	16f/L	16een\L	.	.	16cc\	-cu-	.	.
.	.	16g/JJ	16dd\JJ	.	.	16b-\	-lu(m)	.	.
4AA/	6	8a/L	8cc\L	.	.	16cc\LL	do-	.	.
.	.	.	.	.	.	16a\JJ	.	.	.
.	.	16b-/L	8ff\J	.	.	16g\LL	-mûs	.	.
.	.	16cc/JJ	.	.	.	16f\JJ	.	.	.
=5	=5	=5	=5	=5	=5	=5	=5	=5	=5
4GG/	7	4b-/	8ff\L	4r	.	4b-\	tu-	1ryy	1ryy
.	6\	.	8een\J	.	.	.	.	.	.
!LO:TX:t=P:problem:mixed beam	!	!	!	!	!	!	!	!	!
8FF/L	.	8a/L	8ff\L	8r	.	4a\	-ae.	.	.
!	!	!	!	!LO:LB:g=original	!	!	!	!	!
!	!	!LO:SIC:o:s:=:v:custos b	!	!	!	!	!	!	!
8F\J	.	8cc/J	8aa\J	16A\	Si	.	.	.	.
.	.	.	.	16B-\	as-	.	.	.	.
!	!	!LO:LB:g=original	!	!	!	!	!	!	!
4En\	6	8b-/L	16gg\LL	16c\	-cen-	2r	.	.	.
.	.	.	16cc\	16C/	-de-	.	.	.	.
.	.	8g/J	16bn\	16C/	-ro	.	.	.	.
.	.	.	16cc\JJ	16C/	in	.	.	.	.
8D/L	.	8a/L	8dd\L	8F\	lec-	.	.	.	.
8C/J	n	16cc/L	8gg\J	8En\	-tum	.	.	.	.
.	.	16b-/JJ	.	.	.	.	.	.	.
=6	=6	=6	=6	=6	=6	=6	=6	=6	=6
*	*	*all\right	*	*	*	*	*	*	*
8D/L	.	8a\L	8ff\L	8F\	stra-	2r	.	1ryy	1ryy
8BB-/J	.	16dd\L	16een\L	8BB-/	-ti	.	.	.	.
.	.	16b-\JJ	16dd\JJ	.	.	.	.	.	.
4C/	n	4g/	4ee\	4C/	me-	.	.	.	.
4FF/	.	4f/	4ff\	4FF/	-i,	4r	.	.	.
8r	.	8r	8r	8r	.	8r	.	.	.
!LO:TX:a:t=T&colon;	!	!	!	!	!	!	!	!	!
!LO:SIC:o:s:=:v:custos F	!	!	!	!	!	!	!	!	!
8D\	.	8ff\	8aa\	8D\	Si	8ff\	Si	.	.
!LO:LB:g=original	!	!	!	!	!	!	!	!	!
=7	=7	=7	=7	=7	=7	=7	=7	=7	=7
8F\L	6	16dd\LL	16ff\LL	8F\	de-	8ff\	de-	1ryy	1ryy
.	.	16dd\	16ff\	.	.	.	.	.	.
8A\	#	16a\	16dd\	16A\	-de-	16ff\	-de-	.	.
.	.	16a\JJ	16dd\JJ	16A\	-ro	16ff\	-ro	.	.
8F\	.	16dd\LL	16ff\LL	8F\	som-	8.ff\	som-	.	.
.	.	16dd\	16ff\	.	.	.	.	.	.
8D\J	.	16ff\	16aa\	8D\	-nu(m)	.	.	.	.
.	.	16ff\JJ	16aa\JJ	.	.	16een\	-nu(m)	.	.
!	!	!	!LO:LB:g=original	!	!	!	!	!	!
8G\L	.	8gg\L	8bb-\L	8G\	o-	8dd\	o-	.	.
8A\J	#	16ff\L	8aa\	16A\	-cu-	16cc#X\	-cu-	.	.
.	.	16een\JJ	.	16A\	-lis	16cc#\	-li-	.	.
4B-\	7	4dd\	8aa\	4B-\	me-	4dd,,<\	-sme-	.	.
!	!	!	!LO:SIC:o:s:=:v:brak kreski taktowej	!	!	!	!	!	!
.	6	.	8gg\J	.	.	.	.	.	.
!	!	!	!	!	!	!LO:LB:g=original	!	!	!
=8	=8	=8	=8	=8	=8	=8	=8	=8	=8
4A\	#	8een\L	8aa\L	8A\	-is,	8cc#X\	-is,	1ryy	1ryy
.	.	8cc#X\J	8een\	8A\	et	8een\	et	.	.
8d\L	.	8a/L	8.ff\	8d\	pal-	8ff\	pal-	.	.
8G#X\J	7 n	8bn/J	.	16G#X\	-pe-	16ff\	-pe-	.	.
.	.	.	16ff\Jk	16G#\	-bris	16ff\	-bris	.	.
!	!	!	!	!LO:LB:g=original	!	!	!	!	!
8A\L	#	8cc#X\L	8een\L	16A\	me-	16een\	me-	.	.
.	.	.	.	16A\	-is	16ee\	-is	.	.
8F\J	6	8dd\J	8aa\J	16F\	dor-	16ff\	dor-	.	.
.	.	.	.	16F\	-mi-	16ff\	-mi-	.	.
4G#\	9	8b-X/L	8aa\L	8G#\	-ta-	8ff\	-ta-	.	.
.	8	8b-/J	8gg\J	8G#\	-ti-	16een\LL	-ti-	.	.
.	.	.	.	.	.	16dd\JJ	.	.	.
=9	=9	=9	=9	=9	=9	=9	=9	=9	=9
8A\L	7 #	8en/L	16gg\LL	8A\L	-o-	8cc#X\	-o-	1ryy	1ryy
.	.	.	16een\	.	.	.	.	.	.
8D\J	.	16f/L	16ff\	8D\J	.	(4dd\	.	.	.
!	!	!LO:SIC:o:s:=:v:custos a	!	!	!	!	!	!	!
.	.	16g/JJ	16dd\JJ	.	.	.	.	.	.
!	!	!LO:LB:g=original	!	!	!	!	!	!	!
4AA/	4	4a/	4ee\	4AA/	.	.	.	.	.
.	#	.	.	.	.	8cc#X\)	.	.	.
4D/	.	4a/	4dd\	4D\	-nem.	4dd\	-nem,	.	.
!LO:TX:a:t=S&colon;	!	!	!	!	!	!	!	!	!
4BB-/	.	4r	4r	4r	.	8r	.	.	.
.	.	.	.	.	.	8dd\	et	.	.
=10	=10	=10	=10	=10	=10	=10	=10	=10	=10
4F\	.	0r	0r	2r	.	16cc\	re-	1ryy	1ryy
.	.	.	.	.	.	16f/	-qui-	.	.
.	.	.	.	.	.	16f/	-em	.	.
.	.	.	.	.	.	16f/	tem-	.	.
4E-X\	3	.	.	.	.	8g/	-po-	.	.
.	4	.	.	.	.	16a\	-ri-	.	.
.	.	.	.	.	.	16a\	-b(us)	.	.
4D\	6	.	.	16r	.	8b-\	me-	.	.
.	.	.	.	16B-\	Do-	.	.	.	.
.	.	.	.	16c\	-nec	8b-\	-is,	.	.
.	.	.	.	16d\	in-	.	.	.	.
4E-\	.	.	.	8G\	-ve-	16r	.	.	.
.	.	.	.	.	.	16cc\LL	ta-	.	.
.	.	.	.	16G\	-ni-	16dd\JJ	.	.	.
.	.	.	.	16G\	-am	16ee-,,<\	-ber-	.	.
!	!	!	!	!	!	!LO:LB:g=original	!	!	!
=11	=11	=11	=11	=11	=11	=11	=11	=11	=11
4F\	.	.	.	4r	.	8a\	-na-	1ryy	1ryy
.	.	.	.	.	.	16a\	-cu-	.	.
.	.	.	.	.	.	16a\	-lu(m)	.	.
4G\	.	.	.	8r	.	4.b-\	De-	.	.
.	.	.	.	16B-\LL	lo-	.	.	.	.
.	.	.	.	16A\JJ	.	.	.	.	.
4E-\	.	.	.	8G\	.	.	.	.	.
.	.	.	.	16F\LL	-cum	16a\LL	-o	.	.
.	.	.	.	16E-\JJ	.	16g\JJ	.	.	.
4F\	.	.	.	8.F\	Do-	4a\	Ja-	.	.
.	.	.	.	16F\	-mi-	.	.	.	.
!	!	!	!LO:TX:rj:b:t=V(erte)&colon; S(egue)&colon;	!	!	!	!	!	!
!	!	!	!LO:PB:g=original	!LO:LB:g=original	!	!	!	!	!
=12	=12	=12	=12	=12	=12	=12	=12	=12	=12
*M3/4	*	*M3/4	*M3/4	*M3/4	*	*M3/4	*	*	*
!LO:TX:a:t=T&colon;	!	!	!	!	!	!LO:TX:a:t=b	!	!	!
4BB-/	.	4r	4r	4BB-,</	-no.	4b-\	-cob.	2.ryy	2.ryy
8B-\L	.	8dd\L	4ff\	8B-\L	Ec-	8dd\L	Ec-	.	.
8c\	.	8ee-\	.	8c\J	.	8ee-\J	.	.	.
8d\	.	8ff\	4ff\	8d\	-ce	8ff\	-ce	.	.
8c\J	.	8ee-\J	.	8c\	au-	8ee-\	au-	.	.
=13	=13	=13	=13	=13	=13	=13	=13	=13	=13
8B-\L	.	8dd\L	4.ff\	4B-\	-di-	4dd\	-di-	2.ryy	2.ryy
8c\	.	16ff\L	.	.	.	.	.	.	.
.	.	16ee-\JJ	.	.	.	.	.	.	.
8B-\	.	8dd/L	.	8B-\	-vi-	8dd\	-vi-	.	.
8A\	.	8cc/	16gg\LL	8A\	-mus	8cc\	-m(us)	.	.
.	.	.	16aa\JJ	.	.	.	.	.	.
8G\	.	8b-/	[4bb-\	8G\L	e-	4b-\	e-	.	.
8F\J	.	8a/J	.	8F\J	.	.	.	.	.
=14	=14	=14	=14	=14	=14	=14	=14	=14	=14
8E-\L	6 5	8g/L	8bb-\L]	8E-\	-am	8b-\	-am	2.ryy	2.ryy
8D\	.	8b-/J	8dd\	8D\	in	16cc\LL	in	.	.
.	.	.	.	.	.	16dd\JJ	.	.	.
8E-\	.	4.cc\	8cc\	4E-\	Eph-	4b-\	Eph-	.	.
8C\	.	.	8bb-\	.	.	.	.	.	.
8F\	.	.	8cc\	4F\	-ra-	4a\	-ra-	.	.
!LO:TX:t=P:problem:mixed beam	!	!	!	!	!	!	!	!	!
8FF/J	.	16b-/LL	8aa\J	.	.	.	.	.	.
.	.	16cc/JJ	.	.	.	.	.	.	.
!LO:LB:g=original	!	!	!	!	!	!	!	!	!
=15	=15	=15	=15	=15	=15	=15	=15	=15	=15
4BB-/	.	8dd\L	4bb-\	4BB-/	-ta,	8b-\	-ta	2.ryy	2.ryy
.	.	8dd\	.	.	.	8dd\	in-	.	.
8r	.	8b-\	8r	8r	.	8b-\	-ve-	.	.
8G\L	.	8g\	8bb-\L	8G\	in-	16a\	-ni-	.	.
.	.	.	.	.	.	16g\	-m(us)	.	.
8E-\	.	8cc\	8gg\	8E-\	-ve-	4cc\	e-	.	.
8C\J	.	8cc\J	8ee-\J	16C/	-ni-	.	.	.	.
.	.	.	.	16C/	-mus	.	.	.	.
!	!	!LO:LB:g=original	!	!	!	!	!	!	!
=16	=16	=16	=16	=16	=16	=16	=16	=16	=16
4F\	.	8a/L	8cc\	4F\	e-	8a\	-am	2.ryy	2.ryy
.	.	8a/J	4ff\	.	.	8a\	in	.	.
8D/L	.	4.dd\	.	8D\	-am	4.dd\	ca(m)-	.	.
8BB-/J	.	.	4bb-\	8BB-/	in	.	.	.	.
[4E-\	.	.	.	[4E-\	cam-	.	.	.	.
.	.	8cc\	[8gg\	.	.	8cc\	-pis	.	.
=17	=17	=17	=17	=17	=17	=17	=17	=17	=17
!	!	!	!	!	!	!LO:SIC:t:=:v:Sil-	!	!	!
8E-\L]	.	8b-/L	8gg\L]	8E-\]	.	8b-\L	Syl-	2.ryy	2.ryy
8F\J	.	8a/J	8ff\J	8F\	-pis	8a,,<\J	.	.	.
!	!	!	!	!LO:LB:g=original	!	!LO:LB:g=original	!	!	!
*	*	*	*	*2\right	*	*2\right	*	*	*
!	!	!	!	!LO:SIC:t:=:v:Sil-	!	!	!	!	!
2G\	7	2b-/	4ff\	2G\	Syl-	2b-\	.	.	.
.	6\	.	4een\	.	.	.	.	.	.
=18	=18	=18	=18	=18	=18	=18	=18	=18	=18
4F\	.	4a/	4ff\	4F\	-vae,	4a\	-vae,	2.ryy	2.ryy
4F#X\	6	4dd\	4aa\	4F#X\	in-	4dd\	in-	.	.
4F#\	.	4ee-\	4aa\	4F#\	-tro-	4ee-\	-tro-	.	.
!	!	!	!LO:LB:g=original	!	!	!	!	!	!
=19	=19	=19	=19	=19	=19	=19	=19	=19	=19
8G\L	6	8ee-\L	8bb-\L	8G\	-i-	8ee-\	-i-	2.ryy	2.ryy
8F#X\	6	8dd\	8aa\	8F#X\	-bi-	8dd\	-bi-	.	.
8G\	6	8ee-\	8bb-\	8G\	-m(us)	8ee-\	-m(us)	.	.
8F#\	6	8dd\	8aa\	8F#X\	in	8dd\	in	.	.
8G\	6	8ee-\	8bb-\	8G\	ta-	8ee-\	ta-	.	.
8F#\J	6	8dd\J	8aa\J	8F#X\	-ber-	8dd\	-ber-	.	.
=20	=20	=20	=20	=20	=20	=20	=20	=20	=20
8E-\L	6	8cc\L	8gg\L	8E-\	-na-	8cc\	-na-	2.ryy	2.ryy
8D\J	#	8dd\J	8ff#X\J	16D\	-cu-	16dd\	-cu-	.	.
.	.	.	.	16D\	-lum	16dd\	-lu(m)	.	.
*	*	*	*2\right	*	*	*	*	*	*
2E-\	7	4dd\	2gg\	2E-\	e-	(4dd\	e-	.	.
.	6	4cc\	.	.	.	4cc\)	.	.	.
=21	=21	=21	=21	=21	=21	=21	=21	=21	=21
4D/	.	4dd\	4ff#X\	4D/	-jus,	4dd\	-jus,	2.ryy	2.ryy
4BBn/	6	4g/	4dd\	4BBn/	a-	4dd\	a-	.	.
4BB/	.	4dd\	8gg\L	4BB/	-do-	4g\	-do-	.	.
.	.	.	8ffn\J	.	.	.	.	.	.
=22	=22	=22	=22	=22	=22	=22	=22	=22	=22
4C/	.	4.ee-\	8ee-\L	4C/	-ra-	4.ee-\	-ra-	2.ryy	2.ryy
.	.	.	8ee-\	.	.	.	.	.	.
4D/	9	.	8ff\	8D/	-bi-	.	.	.	.
.	8	8dd\L	8ff\	8D/	-m(us)	8dd\	-bi-	.	.
8E-\L	6	8cc\	8gg\	(8E-\	in	8cc\	-m(us)	.	.
8D\J	6\	8bn\J	8ff\J	8D\)	.	8bn\	in	.	.
=23	=23	=23	=23	=23	=23	=23	=23	=23	=23
8E-\L	6	4.cc\	8gg\L	8E-\	lo-	4cc\	lo-	2.ryy	2.ryy
8D\J	.	.	16ff\L	8D\	-co	.	.	.	.
.	.	.	16gg\JJ	.	.	.	.	.	.
8C\L	.	.	8ee-\L	4C/	u-	8cc\	-co	.	.
8C\J	.	8cc\L	8ee-\	.	.	8ee-\	u-	.	.
8G\L	n	8bn\	8dd\	8G\	-bi-	8dd\	-bi	.	.
!LO:SIC:o:s:=:v:custos A-	!	!LO:SIC:o:s:=:v:custos a	!	!	!	!	!	!	!
8E-\J	6	8cc\J	8ee-\J	8G\	-ste-	8ee-\	ste-	.	.
!	!	!	!	!LO:TX:rj:b:t=Volti Subitò	!	!	!	!	!
!LO:LB:g=original	!	!LO:LB:g=original	!	!LO:PB:g=original	!	!	!	!	!
=24	=24	=24	=24	=24	=24	=24	=24	=24	=24
!	!	!LO:SIC:s:=:v:8a-	!	!	!	!	!	!	!
8A-X\L	.	8a/L	8cc\L	8A-X\	-te-	8cc\	-te-	2.ryy	2.ryy
!	!	!LO:SIC:s:=:v:8a-	!	!	!	!	!	!	!
8F\	6	8a/	8dd\	8F\	-runt	8dd\	-ru(n)t	.	.
8G\	n	8g/	8bn\	8G\	pe-	8bn\	pe-	.	.
!LO:TX:t=P:problem:mixed beam	!	!	!	!	!	!	!	!	!
8C/J	.	8e-/J	8cc\	8C/	-des	8cc\	-des	.	.
!	!	!	!	!	!	!LO:LB:g=original	!	!	!
4GG/	n	4d/	8cc\	4GG/	e-	8cc\L	e-	.	.
.	.	.	8b\J	.	.	8bn\J	.	.	.
=25	=25	=25	=25	=25	=25	=25	=25	=25	=25
4C/	.	4c/	4cc\	4C/	-jus.	4cc\	-jus.	2.ryy	2.ryy
!LO:TX:a:t=Solo.	!	!	!	!	!	!	!	!	!
4E-\	.	4g/	4.ee-\	4.c\	Sur-	4r	.	.	.
4G\	n	4g/	.	.	.	4r	.	.	.
.	.	.	8dd\	8Bn\	-ge	.	.	.	.
!	!	!	!LO:LB:g=original	!	!	!	!	!	!
=26	=26	=26	=26	=26	=26	=26	=26	=26	=26
!	!	!	!	!	!	!LO:TX:a:t=1.	!	!	!
4E-\	6	8g/L	8.gg\L	8.c\	D(o-	2.r	.	2.ryy	2.ryy
.	.	8cc/J	.	.	.	.	.	.	.
.	.	.	16ff\Jk	16G\	-mi)-	.	.	.	.
4C\	.	8cc/L	8ee-\L	8G,<\	-ne	.	.	.	.
.	.	16g/L	8ee-\	8c\	in	.	.	.	.
.	.	16a-X/JJ	.	.	.	.	.	.	.
8D\L	6	8b-/L	8ff\	8B-\	re-	.	.	.	.
8E-\J	.	8b-/J	8ee-\J	16A-X\	-qui-	.	.	.	.
.	.	.	.	16A-\	-em	.	.	.	.
=27	=27	=27	=27	=27	=27	=27	=27	=27	=27
4F\	7 -	4a-X/	8ee-\L	4A-X\	me-	4r	.	2.ryy	2.ryy
.	6	.	8dd\J	.	.	.	.	.	.
4E-\	.	4b-/	4ee-\	4G\	-a(m).	8r	.	.	.
.	.	.	.	.	.	16ee-\	Tu	.	.
.	.	.	.	.	.	16dd\	et	.	.
4A-X\	.	4r	4r	4r	.	8cc\	ar-	.	.
.	.	.	.	.	.	16cc\	-ca	.	.
.	.	.	.	.	.	16b-\	sanc-	.	.
=28	=28	=28	=28	=28	=28	=28	=28	=28	=28
!	!	!LO:N:vis=0	!LO:N:vis=0	!	!	!	!	!	!
8B-\L	.	1.r	1.r	4r	.	16a-X\	-ti-	2.ryy	2.ryy
.	.	.	.	.	.	16f/	-fi-	.	.
8E-\J	.	.	.	.	.	16g/	-ca-	.	.
.	.	.	.	.	.	16e-/	-ti-	.	.
8BB-/L	.	.	.	4r	.	16f/LL	-o-	.	.
.	.	.	.	.	.	16d/JJ	.	.	.
8C/	.	.	.	.	.	16e-/LL	-nis	.	.
.	.	.	.	.	.	16c/JJ	.	.	.
8AA-X/	.	.	.	8F\	Sa-	8e-/L	tu-	.	.
8BB-/J	.	.	.	8F\	-cer-	8d/J	.	.	.
=29	=29	=29	=29	=29	=29	=29	=29	=29	=29
4E-\	.	.	.	8G\	-do-	4e-/	-a,	2.ryy	2.ryy
.	.	.	.	8G\	-tes	.	.	.	.
4C/	.	.	.	8c\	tu-	4r	.	.	.
.	.	.	.	16B-\LL	-i	.	.	.	.
.	.	.	.	16c\JJ	.	.	.	.	.
8F\L	.	.	.	8A\	in	8r	.	.	.
8D\J	.	.	.	8d\	du-	8ff\	et	.	.
=30	=30	=30	=30	=30	=30	=30	=30	=30	=30
!	!	!	!	!LO:SIC:o:s:=:v:custos A	!	!	!	!	!
4E-\	.	2.r	2.r	8G\	-an-	16ee-\LL	San-	2.ryy	2.ryy
.	.	.	.	.	.	16dd\JJ	.	.	.
!	!	!	!	!LO:LB:g=original	!	!	!	!	!
.	.	.	.	16An,\	-tur	16cc\LL	-cti	.	.
.	.	.	.	16B-\	ju-	16b-\JJ	.	.	.
!	!	!	!	!LO:TX:a:t=b	!	!	!	!	!
8F\L	.	.	.	8E-\L	.	8a\	tu-	.	.
8E-\J	.	.	.	8E-\J	.	16b-\	-i	.	.
.	.	.	.	.	.	16b-\	ex-	.	.
4F\	.	.	.	8.F\	-sti-	8b-\L	-ul-	.	.
.	.	.	.	.	.	8a,,<\J	.	.	.
.	.	.	.	16F\	-ti-	.	.	.	.
!	!	!	!	!	!	!LO:TX:rj:b:t=Cito vertat(us).	!	!	!
!	!	!	!	!	!	!LO:PB:g=original	!	!	!
=31	=31	=31||	=31	=31	=31	=31	=31	=31	=31
*M4/4	*	*M4/4	*M4/4	*M4/4	*	*M4/4	*	*	*
*met(c)	*	*met(c)	*met(c)	*met(c)	*	*met(c)	*	*	*
!LO:TX:a:t=T&colon;	!	!	!	!	!	!	!	!	!
4BB-/	.	4r	4r	4BB-/	-am	4b-\	-tent.	1ryy	1ryy
8BB-/L	.	8dd\L	8ff\L	8BB-/	p(ro)-	8.dd\	Pro-	.	.
!LO:TX:t=P:problem:mixed beam	!	!	!	!	!	!	!	!	!
8B-\J	.	8dd\	8ff\J	8B-\	-pter	.	.	.	.
.	.	.	.	.	.	16ee-\	-pter	.	.
8A\L	6	8cc\	8ff\L	8A\	Da-	8ff\	Da-	.	.
16G\L	.	8ff\J	16gg\L	16G\LL	-vid	8b-,\	-vid	.	.
16F\JJ	.	.	16aa\JJ	16F\JJ	.	.	.	.	.
8G\L	6	16ee-\LL	8bb-\L	8G\	Ser-	8ee-\	Ser-	.	.
.	.	16gg\	.	.	.	.	.	.	.
8A\J	.	16ff\	8ccc\J	8A\	-vu(m)	16dd\LL	-vu(m)	.	.
.	.	16ee-\JJ	.	.	.	16cc\JJ	.	.	.
!LO:LB:g=original	!	!	!	!	!	!	!	!	!
=32	=32	=32	=32	=32	=32	=32	=32	=32	=32
8B-\L	.	8dd\L	8ff\L	8B-\	tu-	8dd\	tu-	1ryy	1ryy
!LO:TX:t=P:problem:mixed beam	!	!LO:SIC:o:s:=:v:custos b	!	!	!	!	!	!	!
8BB-/J	.	8dd\J	8ff\J	8B-\	-tum	8dd\	-u(m)	.	.
!	!	!LO:LB:g=original	!	!	!	!	!	!	!
4r	.	8.b-/L	4r	4r	.	8.dd\	non	.	.
.	.	16a/Jk	.	.	.	16cc\	a-	.	.
8.G\L	.	8g/L	8.bb-\L	8.G\	non	8b-\	-ver-	.	.
.	.	8g/J	.	.	.	8b-,\	-tas	.	.
16F\Jk	.	.	16aa\Jk	16F\	a-	.	.	.	.
*	*	*	*	*	*	*	*ij	*	*
8E-\L	6	8.cc/L	8gg\L	8E-\	-ver-	8.cc\	non	.	.
8E-\J	.	.	8gg\J	8E-\	-tas	.	.	.	.
.	.	16b-/Jk	.	.	.	16b-\	a-	.	.
=33	=33	=33	=33	=33	=33	=33	=33	=33	=33
*	*	*	*	*	*ij	*	*	*	*
8.F\L	.	8a/L	8.aa\L	8.F\	non	8a\	-ver-	1ryy	1ryy
.	.	8f/	.	.	.	8a,\	-tas	.	.
16E-\Jk	.	.	16gg\Jk	16E-\	a-	.	.	.	.
*	*	*	*	*	*	*	*Xij	*	*
8D\L	6	8b-/	8ff\L	8D\	-ver-	8.dd\	fa-	.	.
8D\J	#	8dd/J	8ff#X\J	8D\	-tas	.	.	.	.
.	.	.	.	.	.	16dd\	-ci-	.	.
*	*	*	*	*	*Xij	*	*	*	*
!	!	!	!LO:LB:g=original	!	!	!	!	!	!
8En\L	6	8cc\L	8gg\L	8En\	fa-	4cc\	-em	.	.
8F#X\J	.	8dd\	8aa\J	16F#X\	-ci-	.	.	.	.
.	.	.	.	16F#\	-em	.	.	.	.
!	!	!	!	!LO:LB:g=original	!	!	!	!	!
!LO:TX:t=P:problem:mixed beam	!	!	!	!	!	!	!	!	!
8G\L	.	8dd\	8bb-\L	8G\	Chri-	8b-\	(Chri)-	.	.
8C/J	.	8ee-\J	16aa\L	8C/	-sti	16a\LL	-sti	.	.
.	.	.	16gg\JJ	.	.	16g\JJ	.	.	.
=34	=34	=34	=34	=34	=34	=34	=34	=34	=34
2D/	6 4	4b-/	4gg\	2D/	tu-	(4b-\	tu-	1ryy	1ryy
.	5 #	4a/	4ff#X\	.	.	4a\)	.	.	.
4GG/	.	4g/	4gg\	4GG/	-i,	8g\	-i	.	.
.	.	.	.	.	.	8dd\	Ju-	.	.
!LO:TX:a:t=Solo.	!	!	!	!	!	!	!	!	!
4C/	9	4r	4r	4r	.	8dd\L	-ra-	.	.
.	8	.	.	.	.	16ee-\L	-vit	.	.
.	.	.	.	.	.	16cc\JJ	.	.	.
=35	=35	=35	=35	=35	=35	=35	=35	=35	=35
4AA/	6\	00r	00r	4r	.	8.f#X/	Do-	1ryy	1ryy
.	.	.	.	.	.	16f#/	-mi-	.	.
!	!	!	!	!	!	!LO:LB:g=original	!	!	!
4BB-/	6	.	.	16r	.	8g/	-n(us)	.	.
.	.	.	.	16d\	et	.	.	.	.
.	.	.	.	16d\	non	16g\	Da-	.	.
.	.	.	.	16c\	fru-	16a\	-vid	.	.
8G\L	.	.	.	8B-\	-stra-	4.b-\	ve-	.	.
8F\J	.	.	.	16A\	-bi-	.	.	.	.
.	.	.	.	16A\	-tur	.	.	.	.
4E-\	5	.	.	4G\	e-	.	.	.	.
.	6	.	.	.	.	8cc\	-ri-	.	.
=36	=36	=36	=36	=36	=36	=36	=36	=36	=36
4D/	#	.	.	4F#X\	-am.	8dd\	-ta-	1ryy	1ryy
.	.	.	.	.	.	8dd\	-tem	.	.
4BBn/	6	.	.	4r	.	16r	.	.	.
.	.	.	.	.	.	16dd\	de	.	.
.	.	.	.	.	.	16ee-\	fru-	.	.
.	.	.	.	.	.	16ff\	-ctu	.	.
8GG/L	.	.	.	2r	.	8bn\	ven-	.	.
!LO:TX:t=P:problem:mixed beam	!	!	!	!	!	!	!	!	!
8G\	.	.	.	.	.	8b\	-tris	.	.
8E-\	6	.	.	.	.	8cc\	tu-	.	.
8D\J	.	.	.	.	.	8dd\	-i	.	.
=37	=37	=37	=37	=37	=37	=37	=37	=37	=37
4C/	.	.	.	2r	.	16ee-\LL	po-	1ryy	1ryy
.	.	.	.	.	.	16dd\JJ	.	.	.
.	.	.	.	.	.	8cc\	-nam	.	.
4A\	.	.	.	.	.	8r	.	.	.
.	.	.	.	.	.	16ee-\	su-	.	.
.	.	.	.	.	.	16cc\	-per	.	.
4F\	.	.	.	16r	.	8a\	Se-	.	.
.	.	.	.	16F\	Si	.	.	.	.
.	.	.	.	16F\	cus-	16g/LL	-dem	.	.
.	.	.	.	16F\	-to-	16f/JJ	.	.	.
4G\	7	.	.	8F\	-di-	4b-\	Tu-	.	.
.	6\	.	.	16En\	-e-	.	.	.	.
.	.	.	.	16E\	-rint	.	.	.	.
=38	=38	=38	=38	=38	=38	=38	=38	=38	=38
4F\	.	.	.	8F\	fi-	4a\	-am.	1ryy	1ryy
.	.	.	.	16F\	-li-	.	.	.	.
.	.	.	.	16F\	-j	.	.	.	.
8D\L	6	.	.	8B-\	tu-	4r	.	.	.
!	!	!	!	!LO:LB:g=original	!	!	!	!	!
8En\J	.	.	.	16A\LL	-i	.	.	.	.
.	.	.	.	16G\JJ	.	.	.	.	.
!LO:LB:g=original	!	!	!	!	!	!	!	!	!
4F\	6	.	.	8A\	Tes-	16r	.	.	.
.	.	.	.	.	.	16dd\	Et	.	.
.	.	.	.	8D\	-ta-	16cc\	tes-	.	.
.	.	.	.	.	.	16dd\	-ti-	.	.
8G\L	.	.	.	8G\L	-men-	16b-\	-mo-	.	.
.	.	.	.	.	.	16cc\	-ni-	.	.
!	!	!	!	!	!	!LO:LB:g=original	!	!	!
8F\J	.	.	.	8F\J	.	16b-\LL	-a	.	.
.	.	.	.	.	.	16cc\JJ	.	.	.
=39	=39	=39	=39	=39	=39	=39	=39	=39	=39
8En\L	6\	1r	1r	8En\L	.	16g\LL	me-	1ryy	1ryy
.	.	.	.	.	.	16a\JJ	.	.	.
8D\	.	.	.	8D\J	.	16f/LL	-a	.	.
.	.	.	.	.	.	16g/JJ	.	.	.
8A\	#	.	.	8A\L	.	8en/	haec	.	.
8F\J	.	.	.	8F\J	.	16a\	quae	.	.
.	.	.	.	.	.	16f/	do-	.	.
8B-\L	.	.	.	8B-\	.	8d/	-ce-	.	.
8G\	.	.	.	8G,\	-tum	16b-\LL	-bo	.	.
.	.	.	.	.	.	16g\JJ	.	.	.
8A\	#	.	.	4A\	me-	4en/	e-	.	.
!LO:TX:t=P:problem:mixed beam	!	!	!	!	!	!	!	!	!
8AA/J	.	.	.	.	.	.	.	.	.
=40	=40	=40	=40	=40	=40	=40	=40	=40	=40
4D\	.	4r	4r	4D\	-um,	4d/	-os,	1ryy	1ryy
8r	.	8r	8r	8r	.	8r	.	.	.
!LO:TX:a:t=T&colon;	!	!	!	!	!	!	!	!	!
8F\	.	8cc\	8aa\	8F\	et	8a\	et	.	.
8En\L	6	8cc\L	8gg\L	16En\	fi-	16cc\	fi-	.	.
.	.	.	.	16E\	-li-	16cc\	-li-	.	.
8A\	.	16gg\L	8ccc\	16E\	-j	16cc\	-j	.	.
.	.	16aa\JJ	.	16A\	e-	16cc\	e-	.	.
8G\	.	8een\L	8bb-\	8G\	-o-	8een\	-o-	.	.
8F\J	.	8ff\J	8aa\J	8F\	-rum	8ff\	-rum	.	.
=41	=41	=41	=41	=41	=41	=41	=41	=41	=41
8En\L	6	16gg\LL	8gg\L	8En\	us-	8gg\	us-	1ryy	1ryy
.	.	16cc\J	.	.	.	.	.	.	.
8C\	.	8cc\J	16ff\L	16C/	-q(ue)	16cc\	-q(ue)	.	.
.	.	.	16een\JJ	16C/	in	16cc\	in	.	.
8D\	6	8b-\L	8ff\L	8D\	Sae-	16b-\LL	Sae-	.	.
.	.	.	.	.	.	16dd\JJ	.	.	.
8E\J	.	8cc\J	8gg\J	8E\	-cu-	16cc\LL	-cu-	.	.
.	.	.	.	.	.	16b-\JJ	.	.	.
!LO:TX:t=P:problem:mixed beam	!	!	!	!	!	!	!	!	!
8F\L	.	16cc/LL	8aa\L	4F\	-lu(m)	16a\	-lu(m),	.	.
.	.	16cc/	.	.	.	16cc\	se-	.	.
8FF/J	.	16a/	8aa\J	.	.	16a\	-de-	.	.
!	!	!LO:SIC:o:s:=:v:custos dd	!	!	!	!	!	!	!
.	.	16cc/JJ	.	.	.	16cc\	-bu(n)t	.	.
!	!	!LO:LB:g=original	!	!	!	!	!	!	!
16r	.	8dd\L	16r	16r	.	8dd\	su-	.	.
!	!	!	!	!LO:SIC:o:s:=:v:custos G	!	!	!	!	!
16B-\LL	.	.	16dd\LL	16B-\	Se-	.	.	.	.
!	!	!	!	!LO:LB:g=original	!	!	!	!	!
16G\	.	8dd\J	16b-\	16G\	-de-	8dd\	-per	.	.
16B-\JJ	.	.	16dd\JJ	16B-\	-bunt	.	.	.	.
=42	=42	=42	=42	=42	=42	=42	=42	=42	=42
16c\LL	.	16een\LL	16een\LL	16c\	su-	16een\LL	se-	1ryy	1ryy
16En\	.	16cc\	16bb-\	16En\	-per	16cc\JJ	.	.	.
16F\	.	16ff\	16aa\	16F\	Se-	16ff\LL	-dem	.	.
!LO:TX:t=P:problem:mixed beam	!	!	!	!	!	!	!	!	!
16BB-/JJ	.	16dd\JJ	16gg\JJ	16BB-/	-dem	16dd\JJ	.	.	.
!	!	!	!	!	!	!LO:LB:g=original	!	!	!
4C/	n	4ee\	4gg\	4C/	tu-	4een\	tu-	.	.
!	!	!	!LO:LB:g=original	!	!	!	!	!	!
4FF/	.	4ff\	16ff\LL	4FF/	-am.	4ff\	-am.	.	.
.	.	.	16cc\	.	.	.	.	.	.
.	.	.	16a\	.	.	.	.	.	.
.	.	.	16cc\JJ	.	.	.	.	.	.
!LO:TX:a:t=Solo.	!	!	!	!	!	!	!	!	!
4BB-/	.	16r	8dd\L	4r	.	4r	.	.	.
.	.	16f/LL	.	.	.	.	.	.	.
.	.	16d/	8dd\J	.	.	.	.	.	.
.	.	16f/JJ	.	.	.	.	.	.	.
=43	=43	=43	=43	=43	=43	=43	=43	=43	=43
!	!	!	!	!LO:TX:a:t=1.	!	!LO:TX:a:t=1.	!	!	!
4GG/	.	8g/L	16r	1r	.	1r	.	1ryy	1ryy
.	.	.	16dd\LL	.	.	.	.	.	.
.	.	8g/J	16b-\	.	.	.	.	.	.
.	.	.	16dd\JJ	.	.	.	.	.	.
*	*	*	*Xtuplet	*	*	*	*	*	*
!	!	!	!LO:SIC:s:=:v: łuko-trójka	!	!	!	!	!	!
4Cn/	n	16r	24een\LL	.	.	.	.	.	.
.	.	.	24dd\	.	.	.	.	.	.
!	!	!LO:N:vis=8	!	!	!	!	!	!	!
.	.	16g/LL	.	.	.	.	.	.	.
.	.	.	24cc\JJ	.	.	.	.	.	.
!	!	!LO:N:vis=8	!	!	!	!	!	!	!
.	.	16en/	16dd\LL	.	.	.	.	.	.
!	!	!LO:N:vis=8	!	!	!	!	!	!	!
.	.	16g/JJ	16ee\JJ	.	.	.	.	.	.
8F\L	.	8a/L	24ff\LL	.	.	.	.	.	.
.	.	.	24ee\	.	.	.	.	.	.
.	.	.	24dd\JJ	.	.	.	.	.	.
!LO:TX:t=P:problem:mixed beam	!	!	!	!	!	!	!	!	!
8AA/	6	8f/	24cc\LL	.	.	.	.	.	.
.	.	.	24b-\	.	.	.	.	.	.
.	.	.	24a\JJ	.	.	.	.	.	.
8BB-/	6 5	8f/	4g/	.	.	.	.	.	.
8C/J	n	8en/J	.	.	.	.	.	.	.
!LO:LB:g=original	!	!	!	!	!	!	!	!	!
=44	=44	=44	=44	=44	=44	=44	=44	=44	=44
4F\	.	4f/	4f/	2r	.	16cc\	Quo-	1ryy	1ryy
.	.	.	.	.	.	16cc\	-ni-	.	.
.	.	.	.	.	.	16a\	-am	.	.
.	.	.	.	.	.	16cc\	e-	.	.
8A\L	6	4r	4r	.	.	8f/	-le-	.	.
8B-\J	.	.	.	.	.	8dd\	-git	.	.
8A\L	.	2r	2r	4r	.	8cc\	Do-	.	.
8G\J	.	.	.	.	.	16b-\	-mi-	.	.
.	.	.	.	.	.	16b-\	-n(us)	.	.
4F\	.	.	.	8r	.	8a\	Si-	.	.
.	.	.	.	8F\	E-	8f/	-on.	.	.
=45	=45	=45	=45	=45	=45	=45	=45	=45	=45
!	!	!	!	!	!	!LO:TX:a:t=1.	!	!	!
4E-X\	.	00r	00r	8G\	-le-	1r	.	1ryy	1ryy
.	.	.	.	16F\LL	-git	.	.	.	.
.	.	.	.	16G\JJ	.	.	.	.	.
4C/	6	.	.	8A\	e-	.	.	.	.
.	.	.	.	16G\	-am	.	.	.	.
.	.	.	.	16A\	in	.	.	.	.
4BB-/	.	.	.	16B-\	ha-	.	.	.	.
.	.	.	.	16c\	-bi-	.	.	.	.
.	.	.	.	16A\	-ta-	.	.	.	.
.	.	.	.	16B-\	-ti-	.	.	.	.
8AA/L	.	.	.	16c\LL	-o-	.	.	.	.
.	.	.	.	16d\JJ	.	.	.	.	.
8FF/J	.	.	.	16B-\LL	-nem-	.	.	.	.
.	.	.	.	16c\JJ	.	.	.	.	.
!	!	!	!	!LO:LB:g=original	!	!	!	!	!
=46	=46	=46	=46	=46	=46	=46	=46	=46	=46
4BB-/	.	.	.	8d\	-Si-	8r	.	1ryy	1ryy
.	.	.	.	8B-\	-bi.	8dd\	Haec	.	.
4C/	6	.	.	4r	.	8cc\	re-	.	.
.	5	.	.	.	.	16b-\	-qui-	.	.
.	.	.	.	.	.	16b-\	-es	.	.
4D/	#	.	.	4r	.	8b-\	me-	.	.
.	.	.	.	.	.	16a\	-a	.	.
.	.	.	.	.	.	16dd\	in	.	.
8F#X\L	6	.	.	8A\	Vi-	8cc\	Sea-	.	.
.	5	.	.	.	.	.	.	.	.
8G\J	.	.	.	16G\	-du-	16b-\	-cu-	.	.
.	.	.	.	16G\	-am	16b-\	-lu(m)	.	.
=47	=47	=47	=47	=47	=47	=47	=47	=47	=47
4D/	#	.	.	16G\	e-	8b-\	Sae-	1ryy	1ryy
.	.	.	.	16G\	-jus	.	.	.	.
.	.	.	.	16F#X\	be-	16a\	-cu-	.	.
.	.	.	.	16F#\	-ne-	16a\	-li,	.	.
4BB-/	6	.	.	16G\	-di-	8r	.	.	.
.	.	.	.	16G\	-cens	.	.	.	.
!	!	!	!	!	!	!LO:SIC:o:s:=:v:custos dd	!	!	!
.	.	.	.	16B-\	be-	8dd\	hic	.	.
.	.	.	.	16B-\	-ne-	.	.	.	.
!	!	!	!	!	!	!LO:LB:g=original	!	!	!
4C/	.	.	.	8c\	-di-	8ee-\	ha-	.	.
.	.	.	.	16B-\LL	-cam,	16dd\LL	-bi-	.	.
.	.	.	.	16A,\JJ	.	16cc\JJ	.	.	.
4BB-/	6	.	.	8B-\	pau-	8dd\	-ta-	.	.
.	.	.	.	16A\	-pe-	8g\	-bo	.	.
.	.	.	.	16G\	-res	.	.	.	.
=48	=48	=48	=48	=48	=48	=48	=48	=48	=48
4.AA/	.	.	.	8A\	e-	16fn/	quo-	1ryy	1ryy
.	.	.	.	.	.	16g/	-ni-	.	.
.	.	.	.	8D\	-jus	16a\	-am	.	.
.	.	.	.	.	.	16b-\	e-	.	.
.	.	.	.	8A\	sa-	8cc\L	-le-	.	.
8D/	#	.	.	16G\LL	-tu-	16b-\L	.	.	.
.	.	.	.	16F#X\JJ	.	16a\JJ	.	.	.
8G\L	.	.	.	8G\	-ra-	8b-\	.	.	.
!LO:TX:t=P:problem:mixed beam	!	!	!	!	!	!	!	!	!
8C/J	.	.	.	8E-\	-bo	16a\LL	-gi	.	.
.	.	.	.	.	.	16g\JJ	.	.	.
!	!	!	!	!LO:LB:g=original	!	!	!	!	!
4D\	4	.	.	8.D\	pa-	4a\	e-	.	.
.	#	.	.	16D\	-ni-	.	.	.	.
=49	=49	=49	=49	=49	=49	=49	=49	=49	=49
4GG/	.	4r	4r	4GG/	-b(us).	4g\	-am.	1ryy	1ryy
!LO:TX:a:t=T&colon;	!	!	!	!	!	!	!	!	!
4G\	.	8b-/L	8gg\L	8G\	Sa-	8dd\	Sa-	.	.
.	.	8b-/J	8gg\J	8G\	-cer-	8dd\	-cer-	.	.
8F#X\L	6	8a/L	8aa\L	8F#X\	-do-	8dd\	-do-	.	.
8B-\	.	8dd/J	8gg\	8B-\	-tes	8dd\	-tes	.	.
8A\	.	8cc\L	8gg\	8A\	e-	8cc\	e-	.	.
8d\J	#	16b-\L	8ff#X\J	8d\	-jus	8dd\	-jus	.	.
.	.	16a\JJ	.	.	.	.	.	.	.
=50	=50	=50	=50	=50	=50	=50	=50	=50	=50
8d\L	2	8b-/L	8gg\L	8d\	in-	8ee-\	in-	1ryy	1ryy
8c\	3	8cc/	8aa\	16c\	-du-	16ee-\	-du-	.	.
.	.	.	.	16c\	-am	16ee-\	-am	.	.
8c\	2	8a/	8ff#X\	8c\	Sa-	8dd\	Sa-	.	.
!	!	!LO:SIC:o:s:=:v:custos cc	!	!	!	!	!	!	!
8B-\J	3	8b-/J	8gg\J	8B-\	-lu-	16cc\LL	-lu-	.	.
.	.	.	.	.	.	16b-\JJ	.	.	.
!LO:LB:g=original	!	!LO:LB:g=original	!LO:LB:g=original	!	!	!	!	!	!
4A\	7	4cc\	8gg\L	4A\	-ta-	4cc\	-ta-	.	.
.	6\	.	8ff#X\J	.	.	.	.	.	.
4G\	.	8b-\L	4gg\	4G\	-ri,	8b-\	-ri,	.	.
.	.	8dd\J	.	.	.	8dd\	et	.	.
=51	=51	=51	=51	=51	=51	=51	=51	=51	=51
8r	.	8ee-\L	8r	8r	.	8.ee-\	Sanc-	1ryy	1ryy
8G\	n	16ee-\L	16gg\LL	8G\	et	.	.	.	.
.	.	16dd\JJ	16ff\JJ	.	.	16dd\	-ti	.	.
8.A-X\L	.	8cc\L	8ee-\L	8.A-X\	Sanc-	8cc\	e-	.	.
.	.	16dd\L	16ff\L	.	.	8cc\	-jus	.	.
16G\Jk	.	16ee-\JJ	16gg\JJ	16G\	-ti	.	.	.	.
4F\	6	16ff\LL	8aa-X\L	8F\	e-	8cc\	ex-	.	.
.	.	16ee-\	.	.	.	.	.	.	.
.	.	16dd\	8aa-\J	8F\	-jus	8dd\	-ul-	.	.
.	.	16cc\JJ	.	.	.	.	.	.	.
8G\L	n	8bn\L	16gg\LL	8G\	ex-	8dd\	-ta-	.	.
.	.	.	16ff\	.	.	.	.	.	.
8c\J	.	8gg\J	16ee-\	8c\	-ul-	8ee-\	-ti-	.	.
.	.	.	16dd\JJ	.	.	.	.	.	.
=52	=52	=52	=52	=52	=52	=52	=52	=52	=52
8A-X\L	6	16ff\LL	8cc\L	8A-X\	-ta-	8ee-\	-o-	1ryy	1ryy
.	.	16ee-\	.	.	.	.	.	.	.
8F\	6	16dd\	8aa-X\J	8F\	-ti-	8ff\	-ne	.	.
.	.	16cc\JJ	.	.	.	.	.	.	.
!	!	!	!	!LO:LB:g=original	!	!	!	!	!
8G\	n	8bn\L	16gg\LL	8G\	-o-	8ff\	e-	.	.
.	.	.	16ff\	.	.	.	.	.	.
8c\J	.	8gg\J	16ee-\	8c\	-ne	16ee-\LL	.	.	.
.	.	.	16dd\JJ	.	.	16dd\JJ	.	.	.
8A-\L	6	16ff\LL	8cc\L	8A-X\	ex-	8cc\L	-xul-	.	.
.	.	16ee-\	.	.	.	.	.	.	.
8F\J	6	16dd\	8aa-X\J	8F\	-ul-	8dd\J	.	.	.
.	.	16cc\JJ	.	.	.	.	.	.	.
4G\	n	4bn/	16gg\LL	4G\	-ta-	4bn\	-ta-	.	.
.	.	.	16ff\	.	.	.	.	.	.
.	.	.	16ee-\	.	.	.	.	.	.
.	.	.	16dd\JJ	.	.	.	.	.	.
=53	=53	=53	=53	=53	=53	=53	=53	=53	=53
4C/	.	8cc\L	8cc\L	4C/	-bunt.	4cc\	-bunt.	1ryy	1ryy
.	.	8ee-\J	8gg\J	.	.	.	.	.	.
!LO:TX:a:t=S&colon;	!	!	!	!	!	!	!	!	!
[4F\	6	16dd/LL	16ff\LL	4r	.	4r	.	.	.
.	.	16bn/	16dd\	.	.	.	.	.	.
.	.	16cc/	16ee-\	.	.	.	.	.	.
.	.	16a/JJ	16cc\JJ	.	.	.	.	.	.
8F\L]	4 2	8g/L	16bn/LL	2r	.	2r	.	.	.
.	+	.	16g/	.	.	.	.	.	.
16E-\L	6	16cc/L	16cc/	.	.	.	.	.	.
16F\JJ	.	16e-/JJ	16e-/JJ	.	.	.	.	.	.
!	!	!LO:TX:t=P:problem:mixed beam	!LO:TX:t=P:problem:mixed beam	!	!	!	!	!	!
8G\L	4	8G/L	8G/L	.	.	.	.	.	.
!LO:TX:t=P:problem:mixed beam	!	!	!	!	!	!	!	!	!
8GG/J	n	8b\J	8bn\J	.	.	.	.	.	.
!	!	!	!LO:LB:g=original	!	!	!	!	!	!
=54	=54	=54	=54	=54	=54	=54	=54	=54	=54
4C/	.	4cc\	4cc\	8r	.	2r	.	1ryy	1ryy
.	.	.	.	8c\	Il-	.	.	.	.
4BBn/	6	4r	4r	16G\LL	-luc	.	.	.	.
.	.	.	.	16A-X\JJ	.	.	.	.	.
.	.	.	.	16G\LL	pro-	.	.	.	.
.	.	.	.	16F\JJ	.	.	.	.	.
4C/	.	2r	2r	16E-\LL	-du-	4r	.	.	.
.	.	.	.	16C\JJ	.	.	.	.	.
.	.	.	.	16E-\LL	-cam	.	.	.	.
.	.	.	.	16G\JJ	.	.	.	.	.
8A-X\L	.	.	.	8c\	cor-	8r	.	.	.
8G\J	.	.	.	8B-\	-nu	8dd\	Pa-	.	.
!	!	!LO:LB:g=original	!	!	!	!	!	!	!
=55	=55	=55	=55	=55	=55	=55	=55	=55	=55
4F\	7	00r	00r	4A-X\	Da-	8ee-\	-ra-	1ryy	1ryy
.	6 -	.	.	.	.	16dd\	-vi	.	.
.	.	.	.	.	.	16dd\	lu-	.	.
4E-\	.	.	.	4G\	-vid,	8.ee-\	-cer-	.	.
.	.	.	.	.	.	16dd\	-na(m)	.	.
8A-X\L	.	.	.	2r	.	16cc\LL	Chri-	.	.
.	.	.	.	.	.	16a-X\JJ	.	.	.
8G\	.	.	.	.	.	16b-\LL	-sto	.	.
.	.	.	.	.	.	16g\JJ	.	.	.
8F\	.	.	.	.	.	16a-X\LL	me-	.	.
.	.	.	.	.	.	16f\JJ	.	.	.
!	!	!	!	!	!	!LO:LB:g=original	!	!	!
!	!	!	!	!	!	!LO:TX:a:t=g	!	!	!
8E-\J	.	.	.	.	.	16g/LL	.	.	.
.	.	.	.	.	.	16e-/JJ	.	.	.
!LO:LB:g=original	!	!	!	!	!	!	!	!	!
=56	=56	=56	=56	=56	=56	=56	=56	=56	=56
4BB-/	.	.	.	4r	.	4f/	.	1ryy	1ryy
4E-\	.	.	.	16G\	i-	4e-/	-o.	.	.
.	.	.	.	16F\	-ni-	.	.	.	.
.	.	.	.	16G\	-mi-	.	.	.	.
.	.	.	.	16A\	-cos	.	.	.	.
!	!	!	!	!LO:LB:g=original	!	!	!	!	!
4D\	6	.	.	8B-\	e-	2r	.	.	.
.	.	.	.	16c\LL	-jus	.	.	.	.
.	.	.	.	16d\JJ	.	.	.	.	.
4G\	6	.	.	16e-\	in-	.	.	.	.
.	.	.	.	16B-\	-du-	.	.	.	.
.	.	.	.	16G\	-am	.	.	.	.
.	.	.	.	16B-\	con-	.	.	.	.
=57	=57	=57	=57	=57	=57	=57	=57	=57	=57
8E-\L	6	.	.	8c\	-fu-	2r	.	1ryy	1ryy
8D\J	6	.	.	8B-\	-si-	.	.	.	.
4C/	7	.	.	8B-\L	-o-	.	.	.	.
.	6	.	.	8A\J	.	.	.	.	.
4BB-/	.	.	.	4B-\	-ne.	16dd\	Su-	.	.
.	.	.	.	.	.	16dd\	-per	.	.
.	.	.	.	.	.	16a\	i-	.	.
.	.	.	.	.	.	16dd\	-psu(m)	.	.
4E-\	.	.	.	4r	.	8g\	au-	.	.
.	.	.	.	.	.	8g\	-tem	.	.
=58	=58	=58	=58	=58	=58	=58	=58	=58	=58
!	!	!	!	!LO:TX:a:t=1.	!	!	!	!	!
4C/	.	.	.	1r	.	16cc\	ef-	1ryy	1ryy
.	.	.	.	.	.	16a\	-flo-	.	.
.	.	.	.	.	.	16b-\	-re-	.	.
.	.	.	.	.	.	16cc\	-bit	.	.
4D\	.	.	.	.	.	8f/	sanc-	.	.
.	.	.	.	.	.	16g\	-ti-	.	.
.	.	.	.	.	.	16a\	-fi-	.	.
8G\L	.	.	.	.	.	8b-\	-ca-	.	.
8F\J	.	.	.	.	.	16a\	-ti-	.	.
.	.	.	.	.	.	16a\	-o	.	.
4E-\	7	.	.	.	.	4g/	me-	.	.
.	6	.	.	.	.	.	.	.	.
=59	=59	=59	=59	=59	=59	=59	=59	=59	=59
4D/	#	0r	00r	8A\	Glo-	4f#X/	-a.	1ryy	1ryy
.	.	.	.	16A\	-ri-	.	.	.	.
.	.	.	.	16A\	-a	.	.	.	.
8BB-/L	6	.	.	8B-\	Pa-	4r	.	.	.
8C/J	.	.	.	16A\	-tri,	.	.	.	.
.	.	.	.	16G\	et	.	.	.	.
4D\	#	.	.	8.F#X\	Fi-	4r	.	.	.
.	.	.	.	16F#\	-li-	.	.	.	.
8E-\L	.	.	.	8G\	-o,	8r	.	.	.
8D\J	6	.	.	16G\	et	16b-\	Si-	.	.
.	.	.	.	16G\	Spi-	16b-\	-cut	.	.
!	!	!	!	!	!	!LO:LB:g=original	!	!	!
=60	=60	=60	=60	=60	=60	=60	=60	=60	=60
8C/L	6	.	.	8A\	-ri-	16cc\	e-	1ryy	1ryy
.	.	.	.	.	.	16cc\	-rat	.	.
8BB-/	.	.	.	16B-\	-tu-	16dd\	in	.	.
.	.	.	.	16B-\	-i	16dd\	prin-	.	.
!	!	!	!	!LO:LB:g=original	!	!	!	!	!
8BB-/	4 2	.	.	8B-\L	San-	8.ee-\	-ci-	.	.
8AA/J	.	.	.	8A\J	.	.	.	.	.
.	.	.	.	.	.	16ee-\	-pi-	.	.
8BB-/L	.	.	.	4B-\	-cto,	8dd\	-o,	.	.
!LO:TX:t=P:problem:mixed beam	!	!	!	!	!	!	!	!	!
8G\	6\	.	.	.	.	8een\	et	.	.
8A\	#	.	.	4r	.	8cc#X\	nu(n)c,	.	.
8F\J	6	.	.	.	.	8dd\	et	.	.
=61	=61	=61	=61	=61	=61	=61	=61	=61	=61
8G\L	6\ 5	1r	.	4r	.	8dd\L	Sem-	1ryy	1ryy
8A\J	#	.	.	.	.	8ccn\J	.	.	.
4D\	.	.	.	8r	.	4dd\	-per,	.	.
.	.	.	.	16A\	et	.	.	.	.
.	.	.	.	16A\	in	.	.	.	.
8GG/L	.	.	.	8B-\	Sae-	2r	.	.	.
8C/J	6	.	.	16A\	-cu-	.	.	.	.
.	.	.	.	16G\	-la	.	.	.	.
!	!	!	!	!LO:TX:a:t=h	!	!	!	!	!
4D\	#	.	.	8.F#X\	Sae-	.	.	.	.
.	.	.	.	16F#\	-cu-	.	.	.	.
=62	=62	=62	=62	=62	=62	=62	=62	=62	=62
!LO:TX:a:t=T&colon;	!	!	!	!	!	!	!	!	!
!LO:SIC:o:s:=:v:custos D	!	!	!	!	!	!	!	!	!
4G\	.	4r	.	8G\	-lo-	8r	.	1ryy	1ryy
.	.	.	.	8G\	-ru(m)	16dd\	Et	.	.
.	.	.	.	.	.	16dd\	in	.	.
!LO:LB:g=original	!	!	!	!	!	!	!	!	!
8D\L	6\	8r	.	8D\	a-	8ff\	Sae-	.	.
8G\J	5	8dd\	.	8G\	-men	16een\	-cu-	.	.
.	.	.	.	.	.	16dd\	-la	.	.
16A\LL	#	8ff\L	.	16A\LL	a-	8.cc#X\	Sae-	.	.
16B-\	.	.	.	16B-\	.	.	.	.	.
16A\	.	16een\L	.	16A\	.	.	.	.	.
16G\JJ	.	16dd\JJ	.	16G\JJ	.	16cc#\	-cu-	.	.
!	!	!LO:N:vis=8	!	!	!	!	!	!	!
8F#X\L	6	16cc#X\LL	.	8F#X\	.	8dd\	-lo-	.	.
!	!	!LO:N:vis=8	!	!	!	!	!	!	!
.	.	16cc#\	.	.	.	.	.	.	.
!	!	!LO:N:vis=8	!	!	!	!	!	!	!
8D\J	.	16dd\	.	8D\	-men,	8dd\	-ru(m)	.	.
!	!	!LO:N:vis=8	!	!	!	!	!	!	!
.	.	16dd\JJ	.	.	.	.	.	.	.
=63	=63	=63	=63	=63	=63	=63	=63	=63	=63
8En\L	6	8gg\L	8r	8En\L	a-	8cc\L	a-	1ryy	1ryy
8F#X\	.	8aa\J	16aa\LL	8F#X\J	.	16b-\L	.	.	.
.	.	.	16aa\JJ	.	.	16a\JJ	.	.	.
!	!	!	!	!	!	!LO:LB:g=original	!	!	!
!	!	!	!	!LO:TX:t=P:problem:mixed beam	!	!	!	!	!
8G\	.	8dd\L	8bb-\L	8G\L	.	8dd\L	.	.	.
!LO:TX:t=P:problem:mixed beam	!	!	!	!	!	!	!	!	!
8C/J	6	8ee-\J	16aa\L	8C/J	.	16cc\L	.	.	.
.	.	.	16gg\JJ	.	.	16b-\JJ	.	.	.
!	!	!	!	!LO:SIC:o:s:=:v:custos D	!	!	!	!	!
4D\	#	8a/L	8ff#X\L	8D\	-men,	8a\L	.	.	.
!	!	!	!	!LO:LB:g=original	!	!	!	!	!
.	.	16dd/L	8ff#\J	16D\	et	8dd\	.	.	.
.	.	16cc/JJ	.	16D\	in	.	.	.	.
!	!	!	!	!	!	!LO:TX:t=P:problem:mixed beam	!	!	!
8E\L	.	8b-/L	16gg\LL	8E\	Sae-	8g/	.	.	.
.	.	.	16dd\J	.	.	.	.	.	.
16D\L	.	8cc/J	[8gg\J	16D\	-cu-	8cc\J	.	.	.
16C\JJ	.	.	.	16C\	-la	.	.	.	.
=64	=64	=64	=64	=64	=64	=64	=64	=64	=64
4BBn/	6	8dd\L	8gg\L]	8.BBn/	SAe-	4dd\	.	1ryy	1ryy
.	.	8dd\	8ff\J	.	.	.	.	.	.
.	.	.	.	16BB/	-cu-	.	.	.	.
4C/	6.	8g\	4ee-\	8C/	-lo-	2cc\	.	.	.
.	.	8cc\J	.	8C/	-ru(m)	.	.	.	.
[2D/	7 #	8f#X/L	8.dd\L	[2D/	A-	.	.	.	.
.	.	8a/J	.	.	.	.	.	.	.
.	.	.	16dd\K	.	.	.	.	.	.
.	6 4	4dd\	8.gg\	.	.	4b-\	.	.	.
.	.	.	16dd\Jk	.	.	.	.	.	.
=65	=65	=65	=65	=65	=65	=65	=65	=65	=65
4D/]	#	4dd\	8.aa\L	4D/]	.	4a\	.	1ryy	1ryy
.	.	.	16dd\K	.	.	.	.	.	.
4G\	.	4dd\	8.bb-\	4G,\	-men	2g/	.	.	.
.	.	.	16dd\Jk	.	.	.	.	.	.
*	*	*2\right	*	*	*	*	*	*	*
2D/	4	2dd\	8aa\L	2D/	A-	.	.	.	.
.	.	.	16bb-\L	.	.	.	.	.	.
.	.	.	16gg\JJ	.	.	.	.	.	.
.	#	.	4aa\	.	.	4f#X/	.	.	.
=66	=66	=66	=66	=66	=66	=66	=66	=66	=66
1GG/	.	1dd\	1gg\	1GG/	-men.	1g\	-men.	1ryy	1ryy
==	==	==	==	==	==	==	==	==	==
*-	*-	*-	*-	*-	*-	*-	*-	*-	*-
!!!system-decoration: [(s1,s2)][(s3,s4)][(s5)]
!!!RDF**kern: > = above
!!!RDF**kern: < = below
!!!ENC: Marta Chmielewska
!!!END: 2020-06-25
!!!EED: Leszek Kubiak
!!!EST: 2021-01-04
